inpromtek/img/svg/logo--footer.svg

<svg width="202" height="23" viewBox="0 0 202 23" fill="none" xmlns="http://www.w3.org/2000/svg">
<path d="M186.887 0.175434V8.41868H188.641L194.287 0.175434H201.356L193.644 10.928L202 22.0995H194.75L188.641 13.5053H186.887V22.0995H181.041V0.175434H186.887ZM167.068 4.96992V8.97403H176.422V13.0371H167.068V17.305H177.241V22.0995H161.222V0.175434H177.036V4.96992H167.068ZM153.446 5.26202V22.0995H147.599V5.26202H141.988V0.175434H159.351V5.26202H153.446ZM118.339 5.29087L118.924 22.0995H113.077V0.175434H122.338L126.523 13.9434H126.728L130.704 0.175434H140.204V22.0995H134.358L134.942 5.29087H134.738L129.184 22.0995H124.126L118.514 5.29087H118.339ZM100.181 17.1884C101.301 17.1884 102.14 17.1103 102.7 16.9546C103.255 16.8038 103.665 16.472 103.923 15.9605C104.181 15.4538 104.307 14.6599 104.307 13.593V8.65248C104.307 7.82906 104.234 7.18655 104.088 6.71834C103.947 6.24592 103.713 5.89552 103.401 5.66111C103.085 5.42731 102.68 5.27164 102.183 5.19831C101.687 5.12559 101.019 5.08592 100.181 5.08592C99.0752 5.08592 98.2469 5.16405 97.6964 5.31551C97.1507 5.46637 96.751 5.79274 96.4931 6.29461C96.2353 6.79166 96.0934 7.58083 96.0646 8.65248V13.593C96.0934 14.6695 96.2353 15.464 96.4883 15.9701C96.7419 16.472 97.1459 16.8038 97.6964 16.9546C98.2469 17.1103 99.0752 17.1884 100.181 17.1884ZM100.181 22.2744C98.5589 22.2744 97.1507 22.1626 95.9522 21.9384C94.7537 21.7142 93.7115 21.3146 92.8244 20.7352C91.9427 20.16 91.2563 19.3365 90.7682 18.2745C90.2862 17.2125 90.0428 15.8631 90.0428 14.2361V8.03882C90.0428 6.41121 90.2862 5.06188 90.7736 3.99022C91.2605 2.92338 91.9475 2.10476 92.8292 1.52957C93.7115 0.954979 94.7537 0.560699 95.9522 0.336514C97.1507 0.112326 98.5589 -7.05719e-05 100.181 -7.05719e-05C101.808 -7.05719e-05 103.221 0.112326 104.425 0.336514C105.628 0.560699 106.666 0.954979 107.552 1.52957C108.435 2.10476 109.116 2.92338 109.604 3.99022C110.086 5.06188 110.329 6.41121 110.329 8.03882V14.2361C110.329 15.8631 110.086 17.2125 109.604 18.2745C109.121 19.3365 108.439 20.16 107.552 20.7352C106.671 21.3146 105.628 21.7142 104.425 21.9384C103.221 22.1626 101.808 22.2744 100.181 22.2744ZM75.836 11.4004H79.8407C80.6353 11.4004 81.2051 11.3271 81.5555 11.1859C81.9065 11.0446 82.1451 10.7573 82.2768 10.3234C82.4084 9.89483 82.4715 9.18861 82.4715 8.20951C82.4715 7.41975 82.4084 6.82051 82.2768 6.4064C82.1499 5.99769 81.9017 5.70018 81.5315 5.52468C81.1564 5.34917 80.5956 5.26202 79.8407 5.26202H75.836V11.4004ZM75.836 22.0995H69.9897V0.175434H81.0098C82.3892 0.175434 83.548 0.326294 84.4982 0.633425C85.449 0.935747 86.2136 1.40335 86.7984 2.03685C87.3826 2.66974 87.8111 3.49797 88.084 4.51613C88.3569 5.5397 88.4933 6.76702 88.4933 8.20951C88.4933 9.81729 88.3863 11.142 88.1669 12.18C87.9476 13.2228 87.5677 14.0558 87.0316 14.6791C86.496 15.3078 85.7459 15.7658 84.7759 16.0531C83.8016 16.341 82.5496 16.4864 81.0098 16.4864H75.836V22.0995ZM66.4478 0.175434V22.0995H60.6021V5.26202H52.9719V22.0995H47.1256V0.175434H66.4478ZM43.4088 0.175434V22.0995H37.5625V13.5053H29.9329V22.0995H24.0866V0.175434H29.9329V8.41868H37.5625V0.175434H43.4088ZM0 0.175434H5.55359V14.6112H5.75855L12.5984 0.175434H20.2868V22.0995H14.7327V7.66317H14.5325L7.95114 22.0995H0V0.175434Z" fill="white"/>
</svg>

<svg width="202" height="23" fill="none" xmlns="http://www.w3.org/2000/svg"><path d="M186.887.175V8.42h1.754l5.646-8.244h7.069l-7.712 10.753L202 22.099h-7.25l-6.109-8.594h-1.754V22.1h-5.846V.175h5.846zM167.068 4.97v4.004h9.354v4.063h-9.354v4.268h10.173v4.794h-16.019V.175h15.814V4.97h-9.968zm-13.622.292v16.837h-5.847V5.262h-5.611V.175h17.363v5.087h-5.905zm-35.107.029l.585 16.809h-5.847V.174h9.261l4.185 13.768h.205L130.704.175h9.5V22.1h-5.846l.584-16.808h-.204L129.184 22.1h-5.058l-5.612-16.808h-.175zm-18.158 11.897c1.12 0 1.959-.078 2.519-.233a1.86 1.86 0 001.223-.994c.258-.507.384-1.301.384-2.368v-4.94c0-.824-.073-1.466-.219-1.935-.141-.472-.375-.822-.687-1.057-.316-.234-.721-.39-1.218-.463-.496-.072-1.164-.112-2.002-.112-1.106 0-1.934.078-2.485.23a1.85 1.85 0 00-1.203.979c-.258.497-.4 1.286-.428 2.357v4.941c.028 1.076.17 1.871.423 2.377a1.85 1.85 0 001.208.985c.55.155 1.38.233 2.485.233zm0 5.086c-1.622 0-3.03-.111-4.229-.336-1.198-.224-2.24-.623-3.128-1.203-.881-.575-1.568-1.398-2.056-2.46-.482-1.063-.725-2.412-.725-4.039V8.04c0-1.628.243-2.977.73-4.049.487-1.067 1.175-1.885 2.056-2.46.883-.575 1.925-.97 3.123-1.193C97.151.112 98.56 0 100.181 0c1.627 0 3.04.112 4.244.337 1.203.224 2.241.618 3.127 1.193.883.575 1.564 1.393 2.052 2.46.482 1.072.725 2.421.725 4.049v6.197c0 1.627-.243 2.976-.725 4.038-.483 1.063-1.165 1.886-2.052 2.461-.881.58-1.924.98-3.127 1.203-1.204.225-2.617.336-4.244.336zM75.836 11.4h4.005c.794 0 1.364-.073 1.715-.214.35-.141.59-.429.72-.863.132-.428.196-1.134.196-2.113 0-.79-.064-1.39-.195-1.804-.127-.408-.375-.706-.746-.881-.375-.176-.935-.263-1.69-.263h-4.005V11.4zm0 10.7H69.99V.174h11.02c1.38 0 2.538.151 3.488.458.951.303 1.716.77 2.3 1.404.585.633 1.013 1.461 1.286 2.48.273 1.023.41 2.25.41 3.693 0 1.607-.108 2.932-.327 3.97-.22 1.043-.6 1.876-1.135 2.5-.536.628-1.286 1.086-2.256 1.373-.974.288-2.226.433-3.766.433h-5.174V22.1zM66.448.174V22.1h-5.846V5.262h-7.63v16.837h-5.846V.175h19.322zm-23.04 0V22.1h-5.846v-8.594h-7.63V22.1h-5.845V.175h5.846V8.42h7.63V.175h5.846zM0 .175h5.554v14.436h.205L12.599.175h7.688V22.1h-5.554V7.663h-.2L7.95 22.1H0V.175z" fill="#fff"/></svg>
